src/pos-icons/emoticon-angry-outline.svg

<svg height="24" viewBox="0 0 24 24" width="24" xmlns="http://www.w3.org/2000/svg"><path d="m12 2a10 10 0 0 0 -10 10 10 10 0 0 0 10 10 10 10 0 0 0 10-10 10 10 0 0 0 -10-10m0 18a8 8 0 0 1 -8-8 8 8 0 0 1 8-8 8 8 0 0 1 8 8 8 8 0 0 1 -8 8m0-6c1.75 0 3.29.72 4.19 1.81l-1.42 1.42c-.45-.73-1.52-1.23-2.77-1.23s-2.32.5-2.77 1.23l-1.42-1.42c.9-1.09 2.44-1.81 4.19-1.81m-2-4.5c0 .8-.7 1.5-1.5 1.5s-1.5-.7-1.5-1.5v-1.5zm7 0c0 .8-.7 1.5-1.5 1.5s-1.5-.7-1.5-1.5l3-1.5z"/></svg>

<?xml version="1.0" encoding="UTF-8"?><!DOCTYPE svg PUBLIC "-//W3C//DTD SVG 1.1//EN" "http://www.w3.org/Graphics/SVG/1.1/DTD/svg11.dtd"><svg xmlns="http://www.w3.org/2000/svg" xmlns:xlink="http://www.w3.org/1999/xlink" version="1.1" id="mdi-emoticon-angry-outline" width="24" height="24" viewBox="0 0 24 24"><path d="M12,2A10,10 0 0,0 2,12A10,10 0 0,0 12,22A10,10 0 0,0 22,12A10,10 0 0,0 12,2M12,20A8,8 0 0,1 4,12A8,8 0 0,1 12,4A8,8 0 0,1 20,12A8,8 0 0,1 12,20M12,14C13.75,14 15.29,14.72 16.19,15.81L14.77,17.23C14.32,16.5 13.25,16 12,16C10.75,16 9.68,16.5 9.23,17.23L7.81,15.81C8.71,14.72 10.25,14 12,14M10,9.5C10,10.3 9.3,11 8.5,11C7.7,11 7,10.3 7,9.5V8L10,9.5M17,9.5C17,10.3 16.3,11 15.5,11C14.7,11 14,10.3 14,9.5L17,8V9.5" /></svg>
